Piper Navajo/mesa.xmp
<x:xmpmeta xmlns:x="adobe:ns:meta/" x:xmptk="Adobe XMP Core 7.0-c000 1.000000, 0000/00/00-00:00:00        ">
 <rdf:RDF xmlns:rdf="http://www.w3.org/1999/02/22-rdf-syntax-ns#">
  <rdf:Description rdf:about=""
    xmlns:exif="http://ns.adobe.com/exif/1.0/"
    xmlns:tiff="http://ns.adobe.com/tiff/1.0/"
    xmlns:xmpMM="http://ns.adobe.com/xap/1.0/mm/"
    xmlns:stEvt="http://ns.adobe.com/xap/1.0/sType/ResourceEvent#"
    xmlns:dc="http://purl.org/dc/elements/1.1/"
    xmlns:crs="http://ns.adobe.com/camera-raw-settings/1.0/"
    xmlns:photoshop="http://ns.adobe.com/photoshop/1.0/"
    xmlns:xmp="http://ns.adobe.com/xap/1.0/"
   exif:ExifVersion="0231"
   exif:PixelXDimension="1086"
   exif:PixelYDimension="1448"
   tiff:Orientation="1"
   tiff:ImageWidth="1086"
   tiff:ImageLength="1448"
   xmpMM:DocumentID="3EACFC5E6511CAEA677DC617450C0E30"
   xmpMM:OriginalDocumentID="3EACFC5E6511CAEA677DC617450C0E30"
   xmpMM:InstanceID="xmp.iid:d8398c8e-9d34-4fe0-ab01-610b4eda55db"
   dc:format="image/png"
   crs:Version="18.3"
   crs:CompatibleVersion="251920384"
   crs:ProcessVersion="15.4"
   crs:WhiteBalance="As Shot"
   crs:IncrementalTemperature="0"
   crs:IncrementalTint="0"
   crs:Exposure2012="-0.82"
   crs:Contrast2012="+20"
   crs:Highlights2012="0"
   crs:Shadows2012="0"
   crs:Whites2012="0"
   crs:Blacks2012="0"
   crs:Texture="0"
   crs:Clarity2012="0"
   crs:Dehaze="0"
   crs:Vibrance="0"
   crs:Saturation="0"
   crs:ParametricShadows="0"
   crs:ParametricDarks="0"
   crs:ParametricLights="0"
   crs:ParametricHighlights="0"
   crs:ParametricShadowSplit="25"
   crs:ParametricMidtoneSplit="50"
   crs:ParametricHighlightSplit="75"
   crs:Sharpness="0"
   crs:LuminanceSmoothing="0"
   crs:ColorNoiseReduction="0"
   crs:HueAdjustmentRed="0"
   crs:HueAdjustmentOrange="0"
   crs:HueAdjustmentYellow="0"
   crs:HueAdjustmentGreen="0"
   crs:HueAdjustmentAqua="0"
   crs:HueAdjustmentBlue="0"
   crs:HueAdjustmentPurple="0"
   crs:HueAdjustmentMagenta="0"
   crs:SaturationAdjustmentRed="0"
   crs:SaturationAdjustmentOrange="0"
   crs:SaturationAdjustmentYellow="0"
   crs:SaturationAdjustmentGreen="0"
   crs:SaturationAdjustmentAqua="0"
   crs:SaturationAdjustmentBlue="0"
   crs:SaturationAdjustmentPurple="0"
   crs:SaturationAdjustmentMagenta="0"
   crs:LuminanceAdjustmentRed="0"
   crs:LuminanceAdjustmentOrange="0"
   crs:LuminanceAdjustmentYellow="0"
   crs:LuminanceAdjustmentGreen="0"
   crs:LuminanceAdjustmentAqua="0"
   crs:LuminanceAdjustmentBlue="0"
   crs:LuminanceAdjustmentPurple="0"
   crs:LuminanceAdjustmentMagenta="0"
   crs:SplitToningShadowHue="0"
   crs:SplitToningShadowSaturation="0"
   crs:SplitToningHighlightHue="0"
   crs:SplitToningHighlightSaturation="0"
   crs:SplitToningBalance="0"
   crs:ColorGradeMidtoneHue="0"
   crs:ColorGradeMidtoneSat="0"
   crs:ColorGradeShadowLum="0"
   crs:ColorGradeMidtoneLum="0"
   crs:ColorGradeHighlightLum="0"
   crs:ColorGradeBlending="50"
   crs:ColorGradeGlobalHue="0"
   crs:ColorGradeGlobalSat="0"
   crs:ColorGradeGlobalLum="0"
   crs:AutoLateralCA="0"
   crs:LensProfileEnable="0"
   crs:LensManualDistortionAmount="0"
   crs:VignetteAmount="0"
   crs:DefringePurpleAmount="0"
   crs:DefringePurpleHueLo="30"
   crs:DefringePurpleHueHi="70"
   crs:DefringeGreenAmount="0"
   crs:DefringeGreenHueLo="40"
   crs:DefringeGreenHueHi="60"
   crs:PerspectiveUpright="0"
   crs:PerspectiveVertical="0"
   crs:PerspectiveHorizontal="0"
   crs:PerspectiveRotate="0.0"
   crs:PerspectiveAspect="0"
   crs:PerspectiveScale="100"
   crs:PerspectiveX="0.00"
   crs:PerspectiveY="0.00"
   crs:GrainAmount="0"
   crs:PostCropVignetteAmount="0"
   crs:ShadowTint="0"
   crs:RedHue="0"
   crs:RedSaturation="0"
   crs:GreenHue="0"
   crs:GreenSaturation="0"
   crs:BlueHue="0"
   crs:BlueSaturation="0"
   crs:HDREditMode="0"
   crs:ConvertToGrayscale="False"
   crs:OverrideLookVignette="False"
   crs:ToneCurveName2012="Linear"
   crs:CameraProfile="Embedded"
   crs:CameraProfileDigest="D6AF5AEA62557FCE88BC099788BBD3CC"
   crs:HasSettings="True"
   crs:CropTop="0"
   crs:CropLeft="0"
   crs:CropBottom="0.724306"
   crs:CropRight="1"
   crs:CropAngle="0"
   crs:CropConstrainToWarp="0"
   crs:CropConstrainToUnitSquare="1"
   crs:HasCrop="True"
   crs:AlreadyApplied="False"
   photoshop:SidecarForExtension="PNG"
   photoshop:EmbeddedXMPDigest="00000000000000000000000000000000"
   xmp:MetadataDate="2026-06-01T18:38:19-03:00">
   <xmpMM:History>
    <rdf:Seq>
     <rdf:li
      stEvt:action="saved"
      stEvt:instanceID="xmp.iid:d8398c8e-9d34-4fe0-ab01-610b4eda55db"
      stEvt:when="2026-06-01T18:38:19-03:00"
      stEvt:softwareAgent="Adobe Lightroom 9.3.1 (Macintosh)"
      stEvt:changed="/metadata"/>
    </rdf:Seq>
   </xmpMM:History>
   <crs:ToneCurvePV2012>
    <rdf:Seq>
     <rdf:li>0, 0</rdf:li>
     <rdf:li>255, 255</rdf:li>
    </rdf:Seq>
   </crs:ToneCurvePV2012>
   <crs:ToneCurvePV2012Red>
    <rdf:Seq>
     <rdf:li>0, 0</rdf:li>
     <rdf:li>255, 255</rdf:li>
    </rdf:Seq>
   </crs:ToneCurvePV2012Red>
   <crs:ToneCurvePV2012Green>
    <rdf:Seq>
     <rdf:li>0, 0</rdf:li>
     <rdf:li>255, 255</rdf:li>
    </rdf:Seq>
   </crs:ToneCurvePV2012Green>
   <crs:ToneCurvePV2012Blue>
    <rdf:Seq>
     <rdf:li>0, 0</rdf:li>
     <rdf:li>255, 255</rdf:li>
    </rdf:Seq>
   </crs:ToneCurvePV2012Blue>
   <crs:PointColors>
    <rdf:Seq>
     <rdf:li>-1.000000, -1.000000, -1.000000, -1.000000, -1.000000, -1.000000, -1.000000, -1.000000, -1.000000, -1.000000, -1.000000, -1.000000, -1.000000, -1.000000, -1.000000, -1.000000, -1.000000, -1.000000, -1.000000</rdf:li>
    </rdf:Seq>
   </crs:PointColors>
   <crs:ColorVariance>
    <rdf:Seq>
     <rdf:li>-50.000000</rdf:li>
    </rdf:Seq>
   </crs:ColorVariance>
   <crs:RetouchAreas>
    <rdf:Seq>
     <rdf:li>
      <rdf:Description
       crs:SpotType="heal_patchmatch"
       crs:SourceState="sourceAutoComputed"
       crs:Opacity="1"
       crs:Seed="2"
       crs:pm_patch="06A668DA3A1C9692C3F139982C9C3C74"
       crs:pm_remap_info_0="0.040024415,0.873762131,0.000000000,1.000000000"
       crs:pm_remap_info_1="0.036423285,0.825009525,0.000000000,1.000000000"
       crs:pm_remap_info_2="0.018982224,0.846219599,0.000000000,1.000000000"
       crs:pm_gamma_type="1"
       crs:pm_whole_image_top="0"
       crs:pm_whole_image_left="0"
       crs:pm_whole_image_bottom="1448"
       crs:pm_whole_image_right="1086"
       crs:pm_target_top="577"
       crs:pm_target_left="0"
       crs:pm_target_bottom="996"
       crs:pm_target_right="178"
       crs:pm_search_top="210"
       crs:pm_search_left="0"
       crs:pm_search_bottom="1361"
       crs:pm_search_right="895"
       crs:pm_source_type="full"
       crs:pm_version="327680"
       crs:fill_method="firefly"
       crs:pm_black_level="0"
       crs:pm_input_digest="6A381BBCB39ED518F45979B2F1E3AE30"
       crs:pm_local_input_digest="4EB6A4F7C0D42F751397F53470627670"
       crs:pm_patch_mask="2555556E238DA197CFD8194ACB961E9C"
       crs:pm_mask_remap_info="0.000000000,1.000000000,0.000000000,1.000000000"
       crs:pm_clio_model_version="clio-erase-2.0#epoch=0-step=4000.clio-erase-c2-2025-03-19T10-37-32"
       crs:IngestInfo="086721A05C0F59E31190AF1AC15C8B62"
       crs:pm_remap_info_variation_0_0="0.040024415,0.761089504,0.000000000,1.000000000"
       crs:pm_remap_info_variation_0_1="0.036423285,0.746044099,0.000000000,1.000000000"
       crs:pm_remap_info_variation_0_2="0.034561686,0.746898592,0.000000000,1.000000000"
       crs:pm_remap_info_variation_1_0="0.040024415,0.788281083,0.000000000,1.000000000"
       crs:pm_remap_info_variation_1_1="0.036423285,0.773907065,0.000000000,1.000000000"
       crs:pm_remap_info_variation_1_2="0.013626306,0.794872940,0.000000000,1.000000000">
      <crs:pm_patch_variations>
       <rdf:Seq>
        <rdf:li
         crs:pm_patch_variation="257F15CB06C0B80B9EC4D1EAF23263F0"/>
        <rdf:li
         crs:pm_patch_variation="668DDE84AD89816572C34ADB8083B3D9"/>
       </rdf:Seq>
      </crs:pm_patch_variations>
      <crs:Masks>
       <rdf:Seq>
        <rdf:li>
         <rdf:Description
          crs:What="Mask/Paint"
          crs:MaskActive="true"
          crs:MaskBlendMode="0"
          crs:MaskInverted="false"
          crs:MaskSyncID="9BE5B956106043708433F044D7076F78"
          crs:MaskValue="1"
          crs:Radius="0.031505"
          crs:Flow="1"
          crs:CenterWeight="1">
         <crs:Dabs>
          <rdf:Seq>
           <rdf:li>d 0.077914 0.648971</rdf:li>
           <rdf:li>d 0.077914 0.642670</rdf:li>
           <rdf:li>d 0.077914 0.636369</rdf:li>
           <rdf:li>d 0.077914 0.630068</rdf:li>
           <rdf:li>d 0.078223 0.623771</rdf:li>
           <rdf:li>d 0.079386 0.617531</rdf:li>
           <rdf:li>d 0.081177 0.611376</rdf:li>
           <rdf:li>d 0.083250 0.605270</rdf:li>
           <rdf:li>d 0.085046 0.599115</rdf:li>
           <rdf:li>d 0.085497 0.592824</rdf:li>
           <rdf:li>d 0.084940 0.586537</rdf:li>
           <rdf:li>d 0.082530 0.580502</rdf:li>
           <rdf:li>d 0.079704 0.574569</rdf:li>
           <rdf:li>d 0.076764 0.568668</rdf:li>
           <rdf:li>d 0.073903 0.562745</rdf:li>
           <rdf:li>d 0.071221 0.556775</rdf:li>
           <rdf:li>d 0.068961 0.550707</rdf:li>
           <rdf:li>d 0.066914 0.544597</rdf:li>
           <rdf:li>d 0.064812 0.538497</rdf:li>
           <rdf:li>d 0.061918 0.532583</rdf:li>
           <rdf:li>d 0.059141 0.526638</rdf:li>
           <rdf:li>d 0.056130 0.520757</rdf:li>
           <rdf:li>d 0.053816 0.514701</rdf:li>
           <rdf:li>d 0.051991 0.508551</rdf:li>
           <rdf:li>d 0.050852 0.502308</rdf:li>
           <rdf:li>d 0.050697 0.496008</rdf:li>
           <rdf:li>d 0.050678 0.489708</rdf:li>
           <rdf:li>d 0.050671 0.483407</rdf:li>
           <rdf:li>d 0.050743 0.477106</rdf:li>
           <rdf:li>d 0.051481 0.470829</rdf:li>
           <rdf:li>d 0.052479 0.464573</rdf:li>
           <rdf:li>d 0.053154 0.458293</rdf:li>
           <rdf:li>d 0.053599 0.452001</rdf:li>
           <rdf:li>d 0.053715 0.445700</rdf:li>
           <rdf:li>d 0.053723 0.439400</rdf:li>
           <rdf:li>d 0.061805 0.437718</rdf:li>
           <rdf:li>d 0.070164 0.437205</rdf:li>
           <rdf:li>d 0.077688 0.439988</rdf:li>
           <rdf:li>d 0.082751 0.445010</rdf:li>
           <rdf:li>d 0.085214 0.451034</rdf:li>
           <rdf:li>d 0.085919 0.457312</rdf:li>
           <rdf:li>d 0.085991 0.463613</rdf:li>
           <rdf:li>d 0.086346 0.469908</rdf:li>
           <rdf:li>d 0.087048 0.476187</rdf:li>
           <rdf:li>d 0.088637 0.482374</rdf:li>
           <rdf:li>d 0.091246 0.488362</rdf:li>
           <rdf:li>d 0.094472 0.494178</rdf:li>
           <rdf:li>d 0.096684 0.500256</rdf:li>
           <rdf:li>d 0.097963 0.506483</rdf:li>
           <rdf:li>d 0.098139 0.512783</rdf:li>
           <rdf:li>d 0.098148 0.519083</rdf:li>
           <rdf:li>d 0.098148 0.525384</rdf:li>
           <rdf:li>d 0.098148 0.531685</rdf:li>
           <rdf:li>d 0.098148 0.537986</rdf:li>
           <rdf:li>d 0.098148 0.544287</rdf:li>
           <rdf:li>d 0.099151 0.550543</rdf:li>
           <rdf:li>d 0.103891 0.555741</rdf:li>
           <rdf:li>d 0.108101 0.561190</rdf:li>
           <rdf:li>d 0.108611 0.567479</rdf:li>
           <rdf:li>d 0.108677 0.573780</rdf:li>
           <rdf:li>d 0.107175 0.579979</rdf:li>
           <rdf:li>d 0.106688 0.586269</rdf:li>
           <rdf:li>d 0.106560 0.592570</rdf:li>
           <rdf:li>d 0.106528 0.598871</rdf:li>
           <rdf:li>d 0.106524 0.605171</rdf:li>
           <rdf:li>d 0.106523 0.611472</rdf:li>
           <rdf:li>d 0.105143 0.617687</rdf:li>
           <rdf:li>d 0.104498 0.623970</rdf:li>
           <rdf:li>d 0.103754 0.630246</rdf:li>
           <rdf:li>d 0.112137 0.630425</rdf:li>
          </rdf:Seq>
         </crs:Dabs>
         </rdf:Description>
        </rdf:li>
       </rdf:Seq>
      </crs:Masks>
      </rdf:Description>
     </rdf:li>
    </rdf:Seq>
   </crs:RetouchAreas>
  </rdf:Description>
 </rdf:RDF>
</x:xmpmeta>
